X: 56
T:The Corner House Jig
% Nottingham Music Database
S:Andrew Rankine, via Phil Rowe
M:6/8
K:D
B|"D"Add dcd|fed A2d|"Em"Bee edB|"Em"Bee "A7"cBA|
"D"Add dcd|fed A2d|"G"Bdd "A7"cBc|d3 -d2::
A/2G/2|"D"FAA AFD|"G"GBB BAG|"A"Acc cBc|"D"dcd "G"BAG|
"D"FAA AFD|"G"GBB BAG|"D"Add "A7"cBc|"D"d3 -d2:|<end>
<start>
